X:1
T:Title
%%score { ( 1 3 ) | ( 2 4 ) }
L:1/8
Q:1/4=90
M:6/8
K:A
V:1 treble nm="Grand Piano"
V:3 treble 
V:2 bass 
V:4 bass 
V:1
 [CE]3 [CE]2 [CE] | [Ec][CA][DF] [CE]2 [CE] | E3 E3 | .E3 z3 |[M:1/8] [CE] |[M:3/4] A2 z2 z2 | %6
w: J.~Howard~Entwisle * *||||||
 c2 d [=Ge]2 [Fd] | c3 A3 | GA B [CA]3 |[M:1/8] [CA] |[M:3/4] Bc dd cB | c6 | e3 c3 | .A2 z2 z2 | %14
w: ||||||||
 [CA]2 [CA] [Ec]2 [CA] | BA F [CE]2 [CE] | [DF]3 [Fd]3 | [Ec]3 [CEA]3 | [DB]4 z2 | [CEA]6 |] %20
w: ||||||
V:2
 [A,,A,]3 [A,,A,]2 [A,,A,] | [A,,E,]2 [A,,A,] [A,,A,]2 [A,,A,] | [E,G,C]3 [E,A,C]3 | %3
 [B,D]A,[E,G,B,] [A,,A,]3 |[M:1/8] [A,,A,] |[M:3/4] A,,C, [E,G,E] [A,E]2 [A,CE] | %6
 [A,E]2 [F,A,D] [C,A,]2 [D,A,] | [E,A,E]3 [E,CE]3 | [E,D]2 z2 z2 |[M:1/8] [A,,A,] | %10
[M:3/4] [E,E]-[E,A,E] [E,B,E][E,E]- [E,A,E][E,G,E] | E4- E[A,E] | [A,CE]3 [A,E]3 | %13
 [C,A,][B,,G,] [A,,A,] [E,G,]2 [E,G,] | [A,,E,]2 [A,,E,] [A,,A,]2 [A,,E,] | %15
 [D,F,D]2 [D,A,D] [A,,A,]2 [A,,A,] | [D,A,]3 [D,A,]3 | [A,,A,]3 A,,3 | z2 z C2 E, | A,,6 |] %20
V:3
 x6 | x6 | x6 | z CE E3 |[M:1/8] x |[M:3/4] CE B c2 A | x6 | x6 | x6 |[M:1/8] x |[M:3/4] x6 | %11
 z2 A, A,2 c | x6 | E-[EB] [Ec] [EB]2 [DE] | x6 | x6 | x6 | x6 | E3- [EA]2 [DEG] | x6 |] %20
V:4
 x6 | x6 | x6 | .E,3 z3 |[M:1/8] x |[M:3/4] E,2 z2 z2 | x6 | x6 | B,A, [E,G,D] [A,,A,]3 | %9
[M:1/8] x |[M:3/4] .G,2 z B, z2 | A,2 z2 z2 | x6 | x6 | x6 | x6 | x6 | x6 | E,6 | x6 |] %20

